images/salads.svg

<svg xmlns="http://www.w3.org/2000/svg" width="72" height="72" viewBox="0 0 72 72"><style type="text/css">.st0{fill:#B65327;stroke:#26120B;stroke-width:2;stroke-miterlimit:10;} .st1{fill:#E68E24;stroke:#26120B;stroke-width:2;stroke-miterlimit:10;}</style><path class="st0" d="M50.8 31.9c-2.1 0-23.9 25.9-31.7 32.5-2.5 2.2-10.2 4.2-8.1-3.4 2-7.4 36.2-24.8 35.4-32.2-2.7-23.9 16.9-28.8 20.7-21.2 4.5 9.1-1.5 24.3-16.3 24.3z"/><path class="st1" d="M24 31.4c11 10.4 19.2 26.3 27.4 34.1 2.4 2.2 9.9 4.7 8.3-3-1.6-7.5-26.8-28.2-32.4-32.9-.5-.5.8-1.5 1.3-2 .9-.8 2.9-3.4 1.7-7.6-1.4-4.7-8-12.6-10.1-15.2-.3-.4-.9-.5-1.4-.2l-1.6 1.1c-.4.3-.6.9-.2 1.4l6.7 9.8c.5.7.3 1.8-.5 2.2-.7.4-1.6.2-2-.4l-7.6-11.1c-.3-.5-.9-.6-1.4-.3l-1.9 1.2c-.4.4-.6 1-.3 1.4 0 0 4.4 8.2 5.9 10.8.3.5 1.1 1.5-.1 2.3-1 .7-1.8-.4-2.1-.9-1.6-2.7-6.8-10.5-6.8-10.5-.3-.5-1-.7-1.5-.3l-1.6 1.3c-.3.4-.4 1-.2 1.4 0 0 5.3 10.1 7.7 13.7 1.6 2.5 5.3 5.2 9.7 3.5 2.1-.8 2.5-.2 3 .2z"/></svg>

<?xml version="1.0" encoding="utf-8"?>
<!-- Generator: Adobe Illustrator 18.1.1, SVG Export Plug-In . SVG Version: 6.00 Build 0)  -->
<!DOCTYPE svg PUBLIC "-//W3C//DTD SVG 1.1//EN" "http://www.w3.org/Graphics/SVG/1.1/DTD/svg11.dtd">
<svg version="1.1" id="Layer_1" xmlns="http://www.w3.org/2000/svg" xmlns:xlink="http://www.w3.org/1999/xlink" x="0px" y="0px"
	 width="72px" height="72px" viewBox="0 0 72 72" style="enable-background:new 0 0 72 72;" xml:space="preserve">
<style type="text/css">
	.st0{fill:#B65327;stroke:#26120B;stroke-width:2;stroke-miterlimit:10;}
	.st1{fill:#E68E24;stroke:#26120B;stroke-width:2;stroke-miterlimit:10;}
</style>
<g>
	<path class="st0" d="M50.8,31.9c-2.1,0-23.9,25.9-31.7,32.5C16.6,66.6,8.9,68.6,11,61c2-7.4,36.2-24.8,35.4-32.2
		C43.7,4.9,63.3,0,67.1,7.6C71.6,16.7,65.6,31.9,50.8,31.9z"/>
	<path class="st1" d="M24,31.4c11,10.4,19.2,26.3,27.4,34.1c2.4,2.2,9.9,4.7,8.3-3C58.1,55,32.9,34.3,27.3,29.6
		c-0.5-0.5,0.8-1.5,1.3-2c0.9-0.8,2.9-3.4,1.7-7.6c-1.4-4.7-8-12.6-10.1-15.2c-0.3-0.4-0.9-0.5-1.4-0.2l-1.6,1.1
		c-0.4,0.3-0.6,0.9-0.2,1.4l6.7,9.8c0.5,0.7,0.3,1.8-0.5,2.2l0,0c-0.7,0.4-1.6,0.2-2-0.4L13.6,7.6c-0.3-0.5-0.9-0.6-1.4-0.3
		l-1.9,1.2C9.9,8.9,9.7,9.5,10,9.9c0,0,4.4,8.2,5.9,10.8c0.3,0.5,1.1,1.5-0.1,2.3c-1,0.7-1.8-0.4-2.1-0.9
		c-1.6-2.7-6.8-10.5-6.8-10.5c-0.3-0.5-1-0.7-1.5-0.3l-1.6,1.3C3.5,13,3.4,13.6,3.6,14c0,0,5.3,10.1,7.7,13.7
		c1.6,2.5,5.3,5.2,9.7,3.5C23.1,30.4,23.5,31,24,31.4z"/>
</g>
</svg>
